X: 11
T:VALSE DE SAINT JULIEN
M:3/4
L:1/8
Q:205
C:trad. Bresse / Jura
K:C
G2|c2B2c2|d2e2f2|g4a2|g4de|f2e2d2|c2e2d2|1c2B2A2|G4:|2c2A2B2|c4||
|:e2|g2a2g2|d4f2|e2g2e2|c4e2|d2f2d2|1B2d2d2|e2c2:|2B2d2B2|c4||
